icons/glyphs/glyph-mendeleydesktop.svg

<?xml version="1.0" encoding="UTF-8" standalone="no"?><svg height="16" width="16" xmlns="http://www.w3.org/2000/svg"><metadata><rdf:RDF><cc:Work><dc:format>image/svg+xml</dc:format><dc:type/><dc:title/></cc:Work></rdf:RDF></metadata><sodipodi:namedview/><path d="m3.4775379 2.1345285c-.696376.021707-1.369019.3362893-1.884274.8128565-.52365.4843485-.89899004 1.1498172-.97499004 1.8652866-.03802.3577507-.0011.7244294.11575 1.0640574.116795.3396813.31439604.6517358.57664204.8934434.309308.2850411.695896.4648551 1.051097.6878427.177622.1115097.349233.2352489.496365.3857721.147126.1505232.269451.3290839.336817.529906.05994.1786887.07473.3717508.04797.5585088-.02676.1868274-.09484.3670894-.193958.5267274-.198235.3193346-.517869.5518426-.868643.6761626-.406844.144177-.855043.151329-1.24715204.33278-.310305.143579-.571309.393953-.734136.698403-.162785.304465-.227265.661602-.187702 1.005763.04649.404418.236875.78907.522429 1.074671.285553.285585.66341604.471607 1.05947104.53309.580695.09013 1.201444-.0988 1.623579-.514012.2110708-.207607.3720688-.467234.4619465-.751417.0898776-.284225.1084484-.592375.0500535-.884963-.0445975-.223398-.1324432-.435111-.2137715-.647522-.081323-.212492-.1576645-.429997-.1772705-.65707-.03462-.4009452.1165076-.808856.3785299-1.1106706.2620224-.3018091.6281091-.5004019 1.0146172-.5882155.2493717-.056651.5093727-.069339.7612296-.025435.2518517.043957.4956286.1447099.6996827.3009878.2040701.1562779.3671747.3686894.4577777.6115224.090603.2428276.1066564.5160659.034411.7651759-.073995.255143-.2330515.473965-.3941668.683576-.1611153.209612-.3297079.420141-.4254523.667683-.1055844.272993-.1161391.580802-.043798.864803.072342.283959.2252222.544429.4254523.75563.2215155.233707.5020286.408753.8070964.504471.3050785.09578.6171224.112342.9364303.112342.3192918 0 .6521625-.01656.9572836-.112342.3050785-.09572.5856023-.270764.8070964-.504471.2002301-.211244.3531111-.471693.4254521-.75563.07234-.284012.06179-.591789-.0438-.864803-.095741-.247548-.2643287-.458071-.4254493-.667683-.1611206-.209616-.3201772-.428438-.3941668-.683575-.07224-.249121-.056192-.5223598.034411-.7651767.090603-.2428223.2537076-.4552391.4577777-.6115224.2040704-.1562779.4478524-.2570356.6996824-.3009878.251852-.043899.511853-.031211.76123.025435.386503.087798.752589.2863904 1.014617.5882155.262022.3018092.413143.7097628.37853 1.1106714-.01961.227088-.09595.444593-.17727.657069-.08132.212438-.169175.424151-.213772.647522-.0584.292583-.03982.600696.05005.884964.08988.284171.250881.543788.461948.751416.422141.415217 1.042884.604162 1.62358.514012.396018-.06148.773923-.247504 1.059471-.53309.285552-.285585.475937-.670242.522428-1.074671.03957-.344188-.02491-.701282-.187702-1.005763-.162786-.304466-.423806-.554829-.734132-.698403-.392141-.181451-.840324-.188609-1.247152-.33278-.350764-.124315-.670402-.356828-.868643-.6761626-.099121-.1596433-.167201-.3399053-.193958-.5267274-.02676-.186774-.01197-.3798361.04797-.5585088.06737-.2008274.189686-.3793828.336817-.529906.147126-.1505232.318743-.2742624.496359-.3857721.355244-.2229662.741817-.4027802 1.051098-.6878427.262257-.2416863.459858-.5537621.576642-.8934434.11679-.339628.153761-.7062961.11575-1.0640574-.07603-.7154694-.451346-1.3809114-.974991-1.8652866-.515255-.4765885-1.187897-.7911497-1.884273-.8128565-.348189-.010853-.698883.05104-1.019844.1886461-.320956.1376112-.611149.3513987-.833177.6242157-.25454.3127692-.414519.692856-.561015 1.0704041-.146497.3776116-.2849615.7625624-.5067917 1.1001103-.365804.5565888-.9431503 1.0852308-1.6017128 1.0852308s-1.235898-.5286793-1.6017128-1.0852308c-.2218268-.3375159-.3602967-.7224561-.5067932-1.1001103-.1464966-.3775588-.3064759-.7576562-.5610155-1.0704041-.2220275-.272833-.5122206-.4866205-.8331765-.6242157-.3209559-.1376112-.6716292-.1994994-1.0198439-.1886461zm4.522524 5.1538859a1.0677907 1.0852841 0 0 1 1.0677907 1.0852308 1.0677907 1.0852841 0 0 1 -1.0677907 1.0852309 1.0677907 1.0852841 0 0 1 -1.0677908-1.0852309 1.0677907 1.0852841 0 0 1 1.0677908-1.0852308z" fill="#d0d0d0"/></svg>

<?xml version="1.0" encoding="UTF-8" standalone="no"?>
<svg
   xmlns:dc="http://purl.org/dc/elements/1.1/"
   xmlns:cc="http://creativecommons.org/ns#"
   xmlns:rdf="http://www.w3.org/1999/02/22-rdf-syntax-ns#"
   xmlns:svg="http://www.w3.org/2000/svg"
   xmlns="http://www.w3.org/2000/svg"
   xmlns:xlink="http://www.w3.org/1999/xlink"
   xmlns:sodipodi="http://sodipodi.sourceforge.net/DTD/sodipodi-0.dtd"
   xmlns:inkscape="http://www.inkscape.org/namespaces/inkscape"
   width="16"
   height="16"
   version="1.1"
   id="svg30"
   sodipodi:docname="glyph-mendeleydesktop.svg"
   inkscape:version="0.92+devel (b8837397f6, 2017-07-27, custom)">
  <metadata
     id="metadata34">
    <rdf:RDF>
      <cc:Work
         rdf:about="">
        <dc:format>image/svg+xml</dc:format>
        <dc:type
           rdf:resource="http://purl.org/dc/dcmitype/StillImage" />
        <dc:title></dc:title>
      </cc:Work>
    </rdf:RDF>
  </metadata>
  <sodipodi:namedview
     pagecolor="#002466"
     bordercolor="#ffffff"
     inkscape:document-rotation="0"
     borderopacity="0.28235294"
     objecttolerance="10"
     gridtolerance="10"
     guidetolerance="10"
     inkscape:pageopacity="1"
     inkscape:pageshadow="2"
     inkscape:window-width="1920"
     inkscape:window-height="1051"
     id="namedview32"
     showgrid="false"
     inkscape:pagecheckerboard="false"
     inkscape:showpageshadow="false"
     borderlayer="true"
     inkscape:zoom="15.3125"
     inkscape:cx="24"
     inkscape:cy="24"
     inkscape:window-x="0"
     inkscape:window-y="0"
     inkscape:window-maximized="1"
     inkscape:current-layer="svg30" />
  <defs
     id="defs20">
    <linearGradient
       id="linearGradient4144">
      <stop
         style="stop-color:#ffffff;stop-opacity:1;"
         offset="0"
         id="stop2" />
      <stop
         style="stop-color:#eea9a9;stop-opacity:1"
         offset="1"
         id="stop4" />
    </linearGradient>
    <linearGradient
       id="linearGradient4176">
      <stop
         style="stop-color:#000000;stop-opacity:1;"
         offset="0"
         id="stop7" />
      <stop
         style="stop-color:#000000;stop-opacity:0;"
         offset="1"
         id="stop9" />
    </linearGradient>
    <linearGradient
       id="linearGradient4159">
      <stop
         style="stop-color:#cf2134;stop-opacity:1;"
         offset="0"
         id="stop12" />
      <stop
         style="stop-color:#e55a6a;stop-opacity:1"
         offset="1"
         id="stop14" />
    </linearGradient>
    <linearGradient
       xlink:href="#linearGradient4159"
       id="linearGradient4165"
       x1="36.771"
       y1="43.737"
       x2="22.872"
       y2="2.652"
       gradientUnits="userSpaceOnUse" />
    <linearGradient
       xlink:href="#linearGradient4176"
       id="linearGradient4182"
       x1="15.422"
       y1="13.478"
       x2="35.019001"
       y2="33.075001"
       gradientUnits="userSpaceOnUse" />
    <linearGradient
       xlink:href="#linearGradient4144"
       id="linearGradient4150"
       x1="14.023"
       y1="8.1289997"
       x2="27.879"
       y2="34.944"
       gradientUnits="userSpaceOnUse"
       gradientTransform="translate(-22.392835,-31.556292)" />
  </defs>
  <path
     style="fill:#d0d0d0;fill-opacity:1;stroke-width:1"
     d="m 3.4775379,2.1345285 c -0.696376,0.021707 -1.369019,0.3362893 -1.884274,0.8128565 -0.52365,0.4843485 -0.89899004,1.1498172 -0.97499004,1.8652866 -0.03802,0.3577507 -0.0011,0.7244294 0.11575,1.0640574 0.116795,0.3396813 0.31439604,0.6517358 0.57664204,0.8934434 0.309308,0.2850411 0.695896,0.4648551 1.051097,0.6878427 0.177622,0.1115097 0.349233,0.2352489 0.496365,0.3857721 0.147126,0.1505232 0.269451,0.3290839 0.336817,0.529906 0.05994,0.1786887 0.07473,0.3717508 0.04797,0.5585088 -0.02676,0.1868274 -0.09484,0.3670894 -0.193958,0.5267274 -0.198235,0.3193346 -0.517869,0.5518426 -0.868643,0.6761626 -0.406844,0.144177 -0.855043,0.151329 -1.24715204,0.33278 -0.310305,0.143579 -0.571309,0.393953 -0.734136,0.698403 -0.162785,0.304465 -0.227265,0.661602 -0.187702,1.005763 0.04649,0.404418 0.236875,0.78907 0.522429,1.074671 0.285553,0.285585 0.66341604,0.471607 1.05947104,0.53309 0.580695,0.09013 1.201444,-0.0988 1.623579,-0.514012 C 3.4278737,13.05818 3.5888717,12.798553 3.6787494,12.51437 3.768627,12.230145 3.7871978,11.921995 3.7288029,11.629407 3.6842054,11.406009 3.5963597,11.194296 3.5150314,10.981885 3.4337084,10.769393 3.3573669,10.551888 3.3377609,10.324815 3.3031409,9.9238698 3.4542685,9.515959 3.7162908,9.2141444 3.9783132,8.9123353 4.3443999,8.7137425 4.730908,8.6259289 4.9802797,8.5692779 5.2402807,8.5565899 5.4921376,8.6004939 5.7439893,8.6444509 5.9877662,8.7452038 6.1918203,8.9014817 6.3958904,9.0577596 6.558995,9.2701711 6.649598,9.5130041 6.740201,9.7558317 6.7562544,10.02907 6.684009,10.27818 c -0.073995,0.255143 -0.2330515,0.473965 -0.3941668,0.683576 -0.1611153,0.209612 -0.3297079,0.420141 -0.4254523,0.667683 -0.1055844,0.272993 -0.1161391,0.580802 -0.043798,0.864803 0.072342,0.283959 0.2252222,0.544429 0.4254523,0.75563 0.2215155,0.233707 0.5020286,0.408753 0.8070964,0.504471 0.3050785,0.09578 0.6171224,0.112342 0.9364303,0.112342 0.3192918,0 0.6521625,-0.01656 0.9572836,-0.112342 0.3050785,-0.09572 0.5856023,-0.270764 0.8070964,-0.504471 0.2002301,-0.211244 0.3531111,-0.471693 0.4254521,-0.75563 0.07234,-0.284012 0.06179,-0.591789 -0.0438,-0.864803 C 10.039862,11.381891 9.8712743,11.171368 9.7101537,10.961756 9.5490331,10.75214 9.3899765,10.533318 9.3159869,10.278181 9.2437469,10.02906 9.2597949,9.7558212 9.3503979,9.5130043 9.4410009,9.270182 9.6041055,9.0577652 9.8081756,8.9014819 10.012246,8.745204 10.256028,8.6444463 10.507858,8.6004941 c 0.251852,-0.043899 0.511853,-0.031211 0.76123,0.025435 0.386503,0.087798 0.752589,0.2863904 1.014617,0.5882155 0.262022,0.3018092 0.413143,0.7097628 0.37853,1.1106714 -0.01961,0.227088 -0.09595,0.444593 -0.17727,0.657069 -0.08132,0.212438 -0.169175,0.424151 -0.213772,0.647522 -0.0584,0.292583 -0.03982,0.600696 0.05005,0.884964 0.08988,0.284171 0.250881,0.543788 0.461948,0.751416 0.422141,0.415217 1.042884,0.604162 1.62358,0.514012 0.396018,-0.06148 0.773923,-0.247504 1.059471,-0.53309 0.285552,-0.285585 0.475937,-0.670242 0.522428,-1.074671 0.03957,-0.344188 -0.02491,-0.701282 -0.187702,-1.005763 -0.162786,-0.304466 -0.423806,-0.554829 -0.734132,-0.698403 -0.392141,-0.181451 -0.840324,-0.188609 -1.247152,-0.33278 C 13.46892,10.010777 13.149282,9.778264 12.951041,9.4589294 12.85192,9.2992861 12.78384,9.1190241 12.757083,8.932202 12.730323,8.745428 12.745113,8.5523659 12.805053,8.3736932 12.872423,8.1728658 12.994739,7.9943104 13.14187,7.8437872 13.288996,7.693264 13.460613,7.5695248 13.638229,7.4580151 13.993473,7.2350489 14.380046,7.0552349 14.689327,6.7701724 14.951584,6.5284861 15.149185,6.2164103 15.265969,5.876729 15.382759,5.537101 15.41973,5.1704329 15.381719,4.8126716 15.305689,4.0972022 14.930373,3.4317602 14.406728,2.947385 13.891473,2.4707965 13.218831,2.1562353 12.522455,2.1345285 12.174266,2.1236755 11.823572,2.1855685 11.502611,2.3231746 11.181655,2.4607858 10.891462,2.6745733 10.669434,2.9473903 10.414894,3.2601595 10.254915,3.6402463 10.108419,4.0177944 9.961922,4.395406 9.8234575,4.7803568 9.6016273,5.1179047 9.2358233,5.6744935 8.658477,6.2031355 7.9999145,6.2031355 7.341352,6.2031355 6.7640165,5.6744562 6.3982017,5.1179047 6.1763749,4.7803888 6.037905,4.3954486 5.8914085,4.0177944 5.7449119,3.6402356 5.5849326,3.2601382 5.330393,2.9473903 5.1083655,2.6745573 4.8181724,2.4607698 4.4972165,2.3231746 4.1762606,2.1855634 3.8255873,2.1236752 3.4773726,2.1345285 Z m 4.522524,5.1538859 A 1.0677907,1.0852841 0 0 1 9.0678526,8.3736452 1.0677907,1.0852841 0 0 1 8.0000619,9.4588761 1.0677907,1.0852841 0 0 1 6.9322711,8.3736452 1.0677907,1.0852841 0 0 1 8.0000619,7.2884144 Z"
     id="path28"
     inkscape:connector-curvature="0"
     inkscape:label="#" />
</svg>
